packages/icons/raw/imported/FilesImport.svg

<svg width="32" height="32" viewBox="0 0 32 32" fill="none" xmlns="http://www.w3.org/2000/svg">
<path d="M8.50002 11.6154L8.15109 11.2573C8.0545 11.3514 8.00003 11.4805 8.00002 11.6154L8.50002 11.6154ZM13.75 6.5V6C13.6197 6 13.4944 6.05091 13.4011 6.14189L13.75 6.5ZM8.5 22.5769L9 22.5769L8.5 22.5769ZM24 22.5769C24 22.3008 23.7761 22.0769 23.5 22.0769C23.2239 22.0769 23 22.3008 23 22.5769H24ZM23.5 9.42308H23V9.42308L23.5 9.42308ZM8.50002 12.3462L8.00002 12.3462V12.3462L8.50002 12.3462ZM14.5 12.3462V12.8462C14.7761 12.8462 15 12.6223 15 12.3462H14.5ZM23 12.3462C23 12.6223 23.2239 12.8462 23.5 12.8462C23.7761 12.8462 24 12.6223 24 12.3462H23ZM14.5 16.9615C14.2238 16.9615 14 17.1854 14 17.4615C14 17.7377 14.2238 17.9615 14.5 17.9615V16.9615ZM22.75 17.4615L23.0989 17.8196C23.1955 17.7255 23.25 17.5964 23.25 17.4615C23.25 17.3267 23.1955 17.1975 23.0989 17.1034L22.75 17.4615ZM20.0989 14.1803C19.9011 13.9876 19.5846 13.9917 19.3918 14.1895C19.1991 14.3873 19.2032 14.7039 19.401 14.8966L20.0989 14.1803ZM19.401 20.0265C19.2032 20.2192 19.1991 20.5358 19.3918 20.7335C19.5846 20.9313 19.9011 20.9354 20.0989 20.7427L19.401 20.0265ZM8.84896 11.9735L14.0989 6.85811L13.4011 6.14189L8.15109 11.2573L8.84896 11.9735ZM11.5 26H20.5V25H11.5V26ZM11.5 25C10.107 25 9 23.903 9 22.5769L8 22.5769C8 24.4796 9.57932 26 11.5 26V25ZM20.5 26C22.4207 26 24 24.4796 24 22.5769H23C23 23.903 21.893 25 20.5 25V26ZM20.5 7C21.893 7 23 8.09701 23 9.42308H24C24 7.5204 22.4207 6 20.5 6V7ZM13.75 7H14.5V6H13.75V7ZM14.5 7H20.5V6H14.5V7ZM8.00002 11.6154L8.00002 12.3462L9.00002 12.3462L9.00002 11.6154L8.00002 11.6154ZM8.00002 12.3462L8 22.5769L9 22.5769L9.00002 12.3462L8.00002 12.3462ZM14 6.5V12.3462H15V6.5H14ZM14.5 11.8462H8.50002V12.8462H14.5V11.8462ZM23 9.42308L23 12.3462H24L24 9.42308L23 9.42308ZM14.5 17.9615H22.75V16.9615H14.5V17.9615ZM23.0989 17.1034L20.0989 14.1803L19.401 14.8966L22.401 17.8196L23.0989 17.1034ZM22.401 17.1034L19.401 20.0265L20.0989 20.7427L23.0989 17.8196L22.401 17.1034Z" fill="black"/>
</svg>

<svg width="32" height="32" fill="none" xmlns="http://www.w3.org/2000/svg"><path d="m8.5 11.615-.349-.358a.5.5 0 0 0-.151.358h.5ZM13.75 6.5V6a.5.5 0 0 0-.349.142l.349.358ZM8.5 22.577H9h-.5Zm15.5 0a.5.5 0 0 0-1 0h1Zm-.5-13.154H23h.5Zm-15 2.923H8h.5Zm6 0v.5a.5.5 0 0 0 .5-.5h-.5Zm8.5 0a.5.5 0 0 0 1 0h-1Zm-8.5 4.616a.5.5 0 1 0 0 1v-1Zm8.25.5.349.358a.5.5 0 0 0 0-.717l-.349.358Zm-2.651-3.282a.5.5 0 0 0-.698.717l.698-.717Zm-.698 5.846a.5.5 0 1 0 .698.717l-.698-.716ZM8.849 11.973l5.25-5.115-.698-.716-5.25 5.115.698.716ZM11.5 26h9v-1h-9v1Zm0-1C10.107 25 9 23.903 9 22.577H8C8 24.48 9.58 26 11.5 26v-1Zm9 1c1.92 0 3.5-1.52 3.5-3.423h-1C23 23.903 21.893 25 20.5 25v1Zm0-19C21.893 7 23 8.097 23 9.423h1C24 7.52 22.42 6 20.5 6v1Zm-6.75 0h.75V6h-.75v1Zm.75 0h6V6h-6v1ZM8 11.615v.731h1v-.73H8Zm0 .731v10.23h1v-10.23H8ZM14 6.5v5.846h1V6.5h-1Zm.5 5.346h-6v1h6v-1ZM23 9.423v2.923h1V9.423h-1Zm-8.5 8.539h8.25v-1H14.5v1Zm8.599-.859-3-2.923-.698.717 3 2.923.698-.717Zm-.698 0-3 2.923.698.717 3-2.923-.698-.717Z" fill="#000"/></svg>
